X:86
T:Ragtime Annie
C:Traditional
M:4/4
L:1/8
Q:1/8=430
K:D
FE|:DFBF AcBF|AcBF A2EF|DFBF AcBF|ABcd c2cB|
ABcA BAcB|ABcA B2B/c/B|ABcd egfe|1 d2cd BdAF:|2 dcec defg|
|a4 afdB|A2AB A2de|fgaf gfed|B2[g2B2D2] [g2B2D2]ef|
g2ef gfef|g2ef gfef|gfed cBAG|F2[AF][AF] [A2F2]fg|
afbf afde|fdeg fedA|=cdfg agfa|g2gg g2ef|
gdga b2ag|fdfg a2ef|gfed cABc|dcec d4|
